!!!!SEGMENT: pl-wtm--r-2039-i_smietanski-emil-wladyslaw--fuga-a-4-voci.krn
!!!cenid: 18xx:2022
!!!COM: Śmietański, Emil Władysław
!!!COM-rismID: pe50041781
!!!CDT: 1845-1886
!!!CNT: Polish
!!!OTL: Fuga a 4 voci
!!!PDT:
!!!AGN: Secular; Fugue
!!!YEC: Copyright 2022 Narodowy Instytut Fryderyka Chopina (https://polishscores.org)
!!!YEM: License CC-BY-4.0 (https://creativecommons.org/licenses/by/4.0)
!!!SMS-siglum: PL-Wtm
!!!SMS-shelfmark: R 2039-I
!!!SMS-shelfwork: W
!!!SMS-variant:
!!!SMS-altvar:
!!!NIFC-rismSourceID: 1001111528
!!!NIFC-rismChildID: 1001111528
!!!NIFC-islandoraID: pl-wtm:47519
!!!URL-pdf-islandora: https://repozytorium.nifc.pl/islandora/object/pl-wtm%3A47519/datastream/PDF/view
!!!URL-scan: https://polish.musicsources.pl/pl/lokalizacje/galeria/rekopisy/7709/1
!!!IIIF:
!!!ONB-nifc: UWAGA: skan 0003-0004, str. 127-128
!!!AIN: 1 empty
!!!key:
**kern	**kern
*part1	*part1
*staff2	*staff1
*Iempty	*Iforte
*	*I"Fortepian
*	*I'pf
*clefF4	*clefG2
*k[f#]	*k[f#]
*e:	*e:
*M2/2	*M2/2
*met(c|)	*met(c|)
=1	=1
*	*^
*	*	*2\right
1ryy	1ryy	2e\
.	.	2a\
=2	=2	=2
1ryy	1ryy	4g\
.	.	4f#\
.	.	4e\
.	.	8f#\L
.	.	8e\J
=3	=3	=3
1ryy	1ryy	4d#X\
.	.	8c#X\L
.	.	8d#\J
.	.	4e\
.	.	8f#\L
.	.	8g\J
=4	=4	=4
1ryy	1ryy	4a\
.	.	8b\L
.	.	8a\J
.	.	4g\
.	.	4f#\
=5	=5	=5
1ryy	2b/	8e\L
.	.	8f#\
.	.	8e\
.	.	8d\J
.	2ee/	8c#X\L
.	.	8c#\
.	.	8B\
.	.	8c#\J
=6	=6	=6
1ryy	4dd/	8d\L
.	.	8f#\
.	4cc#X/	8e\
.	.	8f#\J
.	4b/	8g\L
.	.	8f#\
.	8cc#/L	8e\
.	8b/J	8e#X\J
!!LO:LB:g=original
=7	=7	=7
1ryy	4a#X/	8f#\L
.	.	8F#\
.	8g#X/L	8f#\
.	8a#/J	8e\J
.	4b/	8d\L
.	.	8f#\
.	8cc#X/L	8e\
.	8dd/J	8d\J
=8	=8	=8
1ryy	4ee/	8c#X\L
.	.	8c#\
.	8ff#/L	8d\
.	8ee/J	8e\J
.	4dd/	8f#\L
.	.	8b\
.	4cc#X/	8e\
.	.	8a#X\J
=9	=9	=9
1ryy	4b/	8d#X\L
.	.	8b\
.	8ccn/L	8a\
.	8b/J	8g\J
.	4a/	8f#\L
.	.	8e\J
.	8b/L	4d#X\
.	8a/J	.
=10	=10	=10
*^	*	*
*	*2\right	*	*
1ryy	2E\	8g/L	4e\
.	.	8b/	.
.	.	8a/	8B\L
.	.	8g/J	8c#X\J
.	2A\	8f#X/L	4d#X\
.	.	8f#/	.
.	.	8e/	8c#\L
.	.	8f#/J	8d#\J
=11	=11	=11	=11
1ryy	4G\	8g/L	4e\
.	.	8b/	.
.	4F#\	8a/	4f#\
.	.	8b/J	.
.	4E\	8cc/L	4g\
.	.	8b/	.
.	8F#\L	8a/	4f#\
.	8E\J	8a#X/J	.
=12	=12	=12	=12
1ryy	4D#X\	8b/L	4F#</
.	.	8B/	.
.	8C#X\L	8b/	8E</L
.	8D#\J	8a/J	8F#</J
.	4E\	8g/L	4G\
.	.	8ee/	.
.	8F#\L	8dd#X/	8A\L
.	8G\J	8ee/J	8B\J
!!LO:LB:g=original
=13	=13	=13	=13
1ryy	4A\	8ff#/L	2c\
.	.	8f#/	.
.	8B\L	8g/	.
.	8A\J	8a/J	.
.	4G\	8b/L	2B\
.	.	8ee/	.
.	4F#\	8b/	.
.	.	8dd#X/J	.
=14	=14	=14	=14
2B/	8E\L	2ee/	1g
.	8F#\	.	.
.	8E\	.	.
.	8D\J	.	.
2e/	8C#X\L	2a#X/	.
.	8C#\	.	.
.	8BB\	.	.
.	8C#\J	.	.
=15	=15	=15	=15
4d/	8D\L	4b/	2f#\
.	8F#\	.	.
4c#X/	8E\	4a#X/	.
.	8F#\J	.	.
4B/	8G\L	4b/	4d\
.	8F#\	.	.
8c#/L	8E\	4g/	4e\
8B/J	8E#X\J	.	.
=16	=16	=16	=16
4A#X/	8F#\L	[2f#/	4c#X\
.	8FF#\	.	.
8G#X/L	8F#\	.	8B\L
8A#/J	8E\J	.	8c#\J
4B/	8D\L	8f#/L]	[2f#\
.	8F#\	8dd/	.
!LO:SIC:v:o=8c/L	!	!	!
8c#	8E\	8cc#X/	.
8d/J	8D\J	8b/J	.
=17	=17	=17	=17
4e/	8C#X\L	4a#X/	4f#\]
.	8C#\	.	.
8f#/L	8D\	8b/L	4r
8e/J	8E\J	8cc#X/J	.
4d/	8F#\L	8dd/L	2rc
.	8B\	8f#/	.
4c#X/	8E\	8g/	.
.	8A#X\J	8f#/J	.
=18	=18	=18	=18
8B/L	2D#X\	4f#/	2rc
8A#X/	.	.	.
8B/	.	8g/L	.
8cn/J	.	8a/J	.
8B/L	4E\	4g/	2r
8e/J	.	.	.
8An/L	4BB\	4f#/	.
8d#X/J	.	.	.
!!LO:LB:g=original
=19	=19	=19	=19
8G/L	8E\L	4b/	2e\
8B/	8G\	.	.
8A/	8F#\	4ee/	.
8G/J	8E\J	.	.
8F#/L	2BB\	4dd#X/	2a\
8F#/	.	.	.
8E/	.	8cc#X/L	.
8F#/J	.	8dd#/J	.
=20	=20	=20	=20
8G/L	4E\	4ee/	4g\
8B/	.	.	.
8A/	8F#\L	4ddn/	4f#X\
8B/J	8G\J	.	.
8c/L	8A\L	2cc/	4e\
8B/	8G\	.	.
8A/	8F#\	.	8f#\L
8A#X/J	8FF#\J	.	8e\J
=21	=21	=21	=21
8B/L	2BB\	[2b/	4d#X\
8F#/	.	.	.
8B/	.	.	8c#X\L
8A/J	.	.	8d#\J
8G/L	2E\	8b/L]	4e\
8B/	.	8g/	.
8A/	.	8a/	8f#\L
8G/J	.	8b/J	8g\J
=22	=22	=22	=22
8F#/L	4AA\	2cc/	4a\
8F#/	.	.	.
8G/	8GG\L	.	8b\L
8A/J	8FF#\J	.	8a\J
8B/L	2BB\	[2b/	4g\
8e/	.	.	.
8A/	.	.	4f#\
8d#X/J	.	.	.
=23	=23	=23	=23
8G/L	2EE\	4b/]	8e\
8B/	.	.	4g\
8e/	.	8cc/L	.
8d/J	.	8b/J	8f#\
8c/L	2ryy	4a/	4e\
8e/	.	.	.
8B/	.	4g#X/	8fn\L
8e/J	.	.	8e\J
=24	=24	=24	=24
4.c/	8AA\L	4a/	4e\
.	8E\	.	.
.	8A\	4r	8fn\L
8B/	8G\J	.	8e\J
2A/	8Fn\L	2r	4d\
.	8E\	.	.
.	8F\	.	4c\
.	8F#X\J	.	.
!!LO:LB:g=original
=25	=25	=25	=25
8G/L	2G\	1ree	4B\
8A/	.	.	.
8B/	.	.	8g\L
8A/J	.	.	8fn\J
8G/L	2GG\	.	4e\
8c/	.	.	.
8F#/	.	.	4d\
8B/J	.	.	.
=26	=26	=26	=26
8E/L	2C\	2cc/	4c\
8F#/	.	.	.
8G/	.	.	8e\L
8E/J	.	.	8g\J
4.A/	4.AA\	2ffn/	8cc\L
.	.	.	8b\
.	.	.	8cc\
8A-X/	8BB\	.	8dd\J
=27	=27	=27	=27
4G/	2C\	4ee/	8ee\L
.	.	.	8g\
8An/L	.	4dd/	8fn\
8B/J	.	.	8g\J
8c/L	4AA\	4cc/	8a\L
8B/	.	.	8g\
8A/	4D\	8dd/L	8f\
8A-X/J	.	8cc/J	8f#X\J
=28	=28	=28	=28
1G	1GG	4b/	8g\L
.	.	.	8G\
.	.	8a/L	8g\
.	.	8b/J	8fn\J
.	.	4cc/	8e\L
.	.	.	8g\
.	.	8dd/L	8f\
.	.	8ee/J	8e\J
=29	=29	=29	=29
2A/	2FFn\	4ffn/	8d\L
.	.	.	8d\
.	.	8gg/L	8e\
.	.	8ff/J	8d\J
4G/	2GG\	4ee/	8c\L
.	.	.	8g\
8A/L	.	4dd/	8fn\
8B/J	.	.	8g\J
!!LO:LB:g=original
=30	=30	=30	=30
8c/L	2C\	8cc/L	2e\
8C/	.	8cc/	.
8D/	.	8b/	.
8E/J	.	8cc/J	.
2Fn/	4.GG\	8dd/L	2B\
.	.	8dd#X/	.
.	.	8ee/	.
.	8GG#X\	8ddn/J	.
=31	=31	=31	=31
4E/	4AA\	8cc/L	4c\
.	.	8a/	.
4D/	4BB\	8g/	4d\
.	.	8fn/J	.
8C/L	2C\	8e/L	4e\
8E/	.	8cc/	.
8Fn/	.	8b/	8d\L
8G/J	.	8b-X/J	8e\J
=32	=32	=32	=32
8A/	2FFn\	4.a/	4fn\
4C/	.	.	.
.	.	.	8g\L
8D/	.	8b/	8f\J
4C/	2C\	8cc/L	4e\
.	.	8cc/	.
8D/L	.	8b/	8d\L
8E/J	.	8cc/J	8c\J
=33	=33	=33	=33
4Fn/	8GG\L	4dd/	4B\
.	8GG#X\	.	.
4E/	8AA\	8cc/L	8A\L
.	8GGn\J	8b/J	8B\J
4r	4FFn\	8a/L	4c\
.	.	8a-X/	.
4r	4GG\	8g/	4B\
.	.	8fn/J	.
=34	=34	=34	=34
!LO:N:vis=2	!	!	!
1rG	8C\L	2e/	[2c\
.	8BB\	.	.
.	8C\	.	.
.	8E\J	.	.
.	[2Fn\	[2a/	8c\L]
.	.	.	8A\
.	.	.	8B\
.	.	.	8c\J
=35	=35	=35	=35
1r	8F\L]	2a/]	2B\
.	8D\	.	.
.	8E\	.	.
.	8Fn\J	.	.
.	8E\L	2g#X/	[2e\
.	8D\	.	.
.	8C\	.	.
.	8BB\J	.	.
!!LO:LB:g=original
=36	=36	=36	=36
!	!	!	!LO:TX:b:t=P:problem=brak zakończenia ligatury
2A/	8C\L	2a/	4e\]
.	8C#X\	.	.
.	8D\	.	4f#X\
.	8Cn\J	.	.
2d/	4BB\	8b/L	4g#X\
.	.	8b/	.
.	4E\	8a/	8f#\L
.	.	8b/J	8g#\J
=37	=37	=37	=37
4c/	4AA\	8cc/L	4a\
.	.	8ee/	.
4B/	4rAA	8dd#X/	4b\
.	.	8ee/J	.
4A/	4rAA	8ffn/L	4cc\
.	.	8ee/	.
8B/L	4rAA	8ddn/	4b\
8A/J	.	8dd#X/J	.
=38	=38	=38	=38
4G#X/	1rD	8ee/L	4B\
.	.	8b/	.
8F#X/L	.	8ee/	8A\L
8G#/J	.	8ddn/J	8B\J
4A/	.	8cc/L	4c\
.	.	8a/	.
8B/L	.	8g#X/	8d\L
8c/J	.	8a/J	8e\J
=39	=39	=39	=39
4d/	2D\	8a/L	2fn\
.	.	8b/	.
8e/L	.	8cc/	.
8d/J	.	8dd/J	.
4c/	2AA\	4ee/	8e\L
.	.	.	8f#X\
8B/L	.	8dd/L	8g#X\
8c/J	.	8cc/J	8a\J
=40	=40	=40	=40
4B/	4BB\	4dd/	8g#X\L
.	.	.	8e\
[4A/	4C\	4cc/	8a\
.	.	.	8gn\J
8A/L]	4D\	4b/	4fn\
8G#X/J	.	.	.
4A/	8C\L	8a/L	8e\L
.	8D\J	8b/J	8f\J
=41	=41	=41	=41
4G#X/	4E\	8cc/L	8e\L
.	.	8b/J	8d\J
8A/L	8Fn\L	4a/	4c\
8Gn/J	8E\J	.	.
4Fn/	4D\	8b/L	4B\
.	.	8a/J	.
4E/	4E\	4g#X/	8c\L
.	.	.	8B\J
!!LO:PB:g=original
=42	=42	=42	=42
8E/L	2AA\	2a/	4c\
8A/	.	.	.
8c/	.	.	4r
8B/J	.	.	.
8A/L	4.FF#\	2dd/	2r
8G#X/	.	.	.
8A/	.	.	.
8B/J	8GG#X\	.	.
=43	=43	=43	=43
8A/L	4.AA\	4cc/	1r
8E/	.	.	.
8F#X/	.	4b/	.
8G#X/J	8BB\	.	.
8A/L	8C\L	4a/	.
8E/J	8C#X\J	.	.
4F#/	8D\L	8b/L	.
.	8D#X\J	8a/J	.
=44	=44	=44	=44
4E/	8E\L	4g/	2B\
.	8EE\	.	.
4r	8DD#X\	8f#/L	.
.	8EE\J	8g/J	.
2rF	8CC\L	4a/	2e\
.	8C\	.	.
.	8BB\	8b/L	.
.	8AA\J	8cc/J	.
=45	=45	=45	=45
2D/	8BB\L	8f#/	4d\
.	8BB-X\	4g/	.
.	8AA\	.	4c\
.	8D\J	8f#/	.
2G/	8E\L	8g/L	4B\
.	8D\	8f#/J	.
.	8C\	4e/	8c\L
.	8C#X\J	.	8B\J
=46	=46	=46	=46
4F#/	8D\L	4d/	4A\
.	8DD\	.	.
4E/	8EE\	4c/	8G\L
.	8FF#\J	.	8A\J
4D/	8GG\L	8B/L	4B\
.	8D\	8b/	.
8E/L	8C\	8a/	8c\L
8D/J	8BB\J	8g/J	8d\J
!!LO:LB:g=original
=47	=47	=47	=47
4C/	4AA\	8a/L	4e\
.	.	8ee/	.
8BB/L	8GG#X\L	8dd/	8fn\L
8C/J	8AA\J	8cc/J	8e\J
4D/	4BB\	8b/L	4d\
.	.	8g/J	.
8E/L	8C\L	4a/	4c\
8F#X/J	8D\J	.	.
=48	=48	=48	=48
8G/L	8GG\L	2g/	8B\
8B/	8G\	.	8r
8c/	8A\	.	4ryy
8B/J	8G\J	.	.
8A/L	8F#\L	2cc/	2rc
8F#/	8D\	.	.
8G/	8E\	.	.
8A/J	8F#\J	.	.
=49	=49	=49	=49
8G/L	8G\L	4b/	2B\
8D/J	8GG\	.	.
4D#X/	8AA\	4a/	.
.	8BB\J	.	.
2E/	8C\L	4g/	2e\
.	8BB\	.	.
.	8C\	8a/L	.
.	8C#X\J	8g/J	.
=50	=50	=50	=50
8A/L	[2D\	4f#/	4d\
8G#X/J	.	.	.
4A/	.	8e/L	4c\
.	.	8f#/J	.
4.Gn/	8D\]	4g/	4B\
.	4E\	.	.
.	.	8a/L	8c\L
8F#/	8D\	8b/J	8B\J
=51	=51	=51	=51
2E/	8C\L	4cc/	4A\
.	8AA\	.	.
.	8BB\	8dd/L	8G#X\L
.	8C\J	8cc/J	8A\J
4F#/	8D\L	4b/	4B\
.	8D#X\	.	.
8G/L	8E\	4a/	8c\L
8A/J	8F#\J	.	8d\J
=52	=52	=52	=52
8B/L	2E\	8g/L	4e\
8G/	.	8b/	.
8A/	.	8a/	8f#\L
8B/J	.	8g/J	8e\J
8A/L	8F#\L	2a/	4d\
8F#/	8D\	.	.
8G/	8E\	.	4c\
8A/J	8F#\J	.	.
!!LO:LB:g=original
=53	=53	=53	=53
4B/	4G\	8g/L	4B\
.	.	8dd/	.
4rc	4GG\	8gg/	4b\
.	.	8ff#/J	.
2rc	4.AA\	4ee/	8cc\L
.	.	.	8b\J
.	.	8ff#/L	4cc\
.	8AA#X\	8ee/J	.
=54	=54	=54	=54
2F#/	[1BB	2.dd#X/	8b\L
.	.	.	8cc\
.	.	.	8b\
.	.	.	8a\J
2B/	.	.	8g\L
.	.	.	8f#\
.	.	8ee/L	8g\
.	.	8ddn/J	8g#X\J
=55	=55	=55	=55
4A/	1BB_	2cc/	8a\L
.	.	.	8gn\
4G/	.	.	8f#\
.	.	.	8e\J
4F#/	.	8b/L	4d#X\
.	.	8a/J	.
8G/L	.	[4g/	8e\L
8F#/J	.	.	8dn\J
=56	=56	=56	=56
4E/	1BB_	8g/L]	2.c\
.	.	8g/	.
8D#X/L	.	8f#/	.
8E/J	.	8e/J	.
4F#/	.	8e/L	.
.	.	8d#X/	.
8G/L	.	8e/	8B\L
8A/J	.	8f#/J	8d#X\J
=57	=57	=57	=57
4B/	1BB]	8g/L	[2e\
.	.	8g#X/	.
8c/L	.	8a/	.
8B/J	.	8gn/J	.
4A/	.	4f#/	8e\L]
.	.	.	8d#X\
4G/	.	4b/	8e\
.	.	.	8B\J
!!LO:LB:g=original
=58	=58	=58	=58
4F#/	1BB	4a/	8c#X\L
.	.	.	8d#X\J
8G/L	.	8g/L	8e\L
8A/J	.	8f#/J	8d#\J
4G/	.	4e/	8e\L
.	.	.	8c#\
4F#/	.	4d#X/	8B\
.	.	.	8A\J
=59	=59	=59	=59
4G/	2EE\	[2e/	8G\L
.	.	.	8B\
8F#/L	.	.	8A\
8G/J	.	.	8B\J
4.E/	2AA\	8e/L]	4c\
.	.	8a/	.
.	.	8g/	8B\L
8D#X/	.	8f#/J	8c\J
=60	=60	=60	=60
8E/L	4GG\	4e/	[1B
8BB/	.	.	.
8C#X/	4FF#\	4f#/	.
8D#X/J	.	.	.
4E/	4EE\	8g/L	.
.	.	8g#X/	.
8D#/L	8FF#\L	8a/	.
8E/J	8EE\J	8gn/J	.
=61	=61	=61	=61
4F#/	4DD#X\	8f#/L	1B]
.	.	8b/	.
8E/L	8CC#X\L	8a#X/	.
8F#/J	8DD#\J	8b/J	.
8E/L	4EE\	8g/L	.
8G/	.	8e/	.
8A/	8FF#\L	8d#X/	.
8G/J	8GG\J	8e/J	.
=62	=62	=62	=62
4F#/	2AA\	8f#/L	2c\
.	.	8a/	.
8E/L	.	8g/	.
8F#/J	.	8f#/J	.
4G/	2BB\	4e/	8B\L
.	.	.	8c\
4F#/	.	4d#X/	8B\
.	.	.	8A\J
!!LO:LB:g=original
=63	=63	=63	=63
!	!	!LO:TX:b:t=Fine.	!
1E	1BB 1EE	1e;	1G#X
*v	*v	*	*
*	*v	*v
==	==
*-	*-
!!!system-decoration: {(s1,s2)}
!!!RDF**kern: > = above
!!!RDF**kern: < = below
!!!ENC: Andrzej Kubiczek
!!!END: 2021-05-25
!!!ENC: Marcin Jachim
!!!END: 2021-05-08
